X: 1
T:McLeod's tuning phrase
M:C
L:1/8
Q:80
C:
S:Slow Air
K:HP
[| c2e2cBcA2|
c2e2cBcB2| |
c2e2cBcA2|  !
c2e2GBGA2|] |
c2a2fefA2|
c2a2fecB2| |  !
c2a2fefA2|
c2e2GBGA2|]
